!!!!SEGMENT: pl-wumfc--r291_paderewski-ignacy-jan--exercise.krn
!!!cenid: 18xx:3211
!!!COM: Paderewski, Ignacy Jan
!!!COM-rismID: pe30029943
!!!CDT: 1860/11/18-1941/06/29
!!!CNT: Polish
!!!OTL: [Exercise]
!!!PDT:
!!!AGN: Secular; Etude
!!!YEC: Copyright 2022 Narodowy Instytut Fryderyka Chopina (https://polishscores.org)
!!!YEM: License CC-BY-4.0 (https://creativecommons.org/licenses/by/4.0)
!!!SMS-siglum: PL-Wumfc
!!!SMS-shelfmark: R291
!!!SMS-shelfwork: W
!!!SMS-variant:
!!!SMS-altvar:
!!!NIFC-rismSourceID: 1001159474
!!!NIFC-rismChildID: 1001159474
!!!NIFC-islandoraID: pl-wumfc:471
!!!URL-pdf-islandora: https://repozytorium.nifc.pl/islandora/object/pl-wumfc%3A471/datastream/PDF/view
!!!URL-scan: https://polish.musicsources.pl/pl/lokalizacje/galeria/rekopisy/4711 @EN{Scan on Polish Music Sources Website} @PL{Skany w portalu Dziedzictwo Muzyki Polskiej w otwartym dostępie}
!!!IIIF:
!!!ONB-nifc:
!!!AIN: 1 clars 1 cor 1 fagot 1 flt 1 oboe
!!!key: e
**kern	**dynam	**kern	**kern	**kern	**kern
*part5	*	*part4	*part3	*part2	*part1
*staff5	*	*staff4	*staff3	*staff2	*staff1
*I"2 Corni in F.	*	*I"2 Fagotti	*I"2 Clarinetti in B.	*I"2 Oboi	*I"2 Flauti
*mI"2 Corni in F	*	*	*mI"2 Clarinetti in B	*	*
*I'cor	*	*I'fag	*I'cl	*I'ob	*I'fl
*Icor	*	*Ifagot	*Iclars	*Ioboe	*Iflt
*ICbras	*	*ICww	*ICww	*ICww	*ICww
*clefG2	*	*clefF4	*clefG2	*clefG2	*clefG2
*ITrd4c7	*	*	*ITrd1c2	*	*
*k[f#]	*	*k[f#]	*k[f#]	*k[f#]	*k[f#]
*e:	*	*e:	*e:	*e:	*e:
*M3/8	*	*M3/8	*M3/8	*M3/8	*M3/8
=1	=1	=1	=1	=1	=1
*	*	*	*^	*	*
4.r	.	4.r	8r	4rc	4.r	4.r
.	.	.	(16dd/LL	.	.	.
.	.	.	16cc#X/J	.	.	.
.	.	.	8dd/J)	8re	.	.
=2	=2	=2	=2	=2	=2	=2
4.r	.	4.r	8a'/L	4r	4.r	4.r
.	.	.	8ccn'/	.	.	.
.	.	.	8b'/J	8r	.	.
=3	=3	=3	=3	=3	=3	=3
4.r	.	4.r	8g'>/	8ryy	4.r	4.r
.	.	.	4r	16d\LL	.	.
.	.	.	.	16c#X\J	.	.
.	.	.	.	8d\J	.	.
=4	=4	=4	=4	=4	=4	=4
4.r	.	4.r	4r	8A\L	4.r	4.r
.	.	.	.	8cn\	.	.
.	.	.	8r	8B\J	.	.
=5	=5	=5	=5	=5	=5	=5
*^	*	*	*	*	*	*
8r	8ryy	.	8r	4.r	8G\	4.r	4.r
(4d/	4G\	.	4BB\	.	4r	.	.
*	*	*	*	*v	*v	*	*
=6	=6	=6	=6	=6	=6	=6
4.e/)	4.G\	.	8C\	4r	4.r	4.r
.	.	.	4AA\	.	.	.
.	.	.	.	8cc/	.	.
=7	=7	=7	=7	=7	=7	=7
8d/L	8F#\L	.	4.D\	[>4.cc/	4.r	4.r
8e/	8G\	.	.	.	.	.
8d/J	8F#\J	.	.	.	.	.
*v	*v	*	*	*	*	*
!!LO:LB:g=original
=8	=8	=8	=8	=8	=8
4.d 4.F#/	.	4.DD\	8cc/L]	4.r	4.r
.	.	.	8b/	.	.
.	.	.	8a/J	.	.
=9	=9	=9	=9	=9	=9
*^	*	*	*	*	*^
8d 8G/	8ryy	.	8GG\	8b/	4.r	8r	4.r
4ree	4re	.	8r	8r	.	(<16ddd/LL	.
.	.	.	.	.	.	16ccc#X/J	.
.	.	.	8r	8r	.	8ddd/J)	.
*v	*v	*	*	*	*	*v	*v
=10	=10	=10	=10	=10	=10
4.r	.	4.r	4.r	4.r	8aa/L
.	.	.	.	.	8cccn/
.	.	.	.	.	8bb/J
=11	=11	=11	=11	=11	=11
*	*	*	*	*	*^
4.r	.	4.r	4.r	4.r	8gg/	8r
.	.	.	.	.	8rccc	(>16dd\LL
.	.	.	.	.	.	16cc#X\J
.	.	.	.	.	8rccc	8dd\J)
=12	=12	=12	=12	=12	=12	=12
4.r	.	4.r	4.r	4.r	4r	8a\L
.	.	.	.	.	.	8ccn\
.	.	.	.	.	8r	8b\J
=13	=13	=13	=13	=13	=13	=13
*	*	*	*	*^	*	*
4.r	.	8r	8r	4raa	8r	4.r	8g\
.	.	4B\	[4g/	.	4dd\	.	4r
.	.	.	.	8raa	.	.	.
*	*	*	*	*	*	*v	*v
=14	=14	=14	=14	=14	=14	=14
4.r	.	8c\	8g/]	4r	4.ee\	4.r
.	.	4F#\	[4a/	.	.	.
.	.	.	.	8ccc/	.	.
=15	=15	=15	=15	=15	=15	=15
4.r	.	[4.B\	8a/L]	[4.ccc/	[4.dd#X\	4.r
.	.	.	8g/	.	.	.
.	.	.	8f#/J	.	.	.
!!LO:LB:g=original
=16	=16	=16	=16	=16	=16	=16
4.r	.	4.B\]	4.f#/	8ccc/L]	4.dd#\]	8r
.	.	.	.	8bb/	.	4ryy
.	.	.	.	8aa/J	.	.
=17	=17	=17	=17	=17	=17	=17
*	*	*	*	*	*	*^
4.r	.	8E\	8g/	8gg/	8ee\	8raa	8r
.	.	8r	8r	8raa	8r	16bb/LL	16gg\LL
.	.	.	.	.	.	16aa#X/J	16ff#\J
.	.	8r	8r	8raa	8r	8bb/J	8gg\J
*	*	*	*	*v	*v	*	*
=18	=18	=18	=18	=18	=18	=18
4.r	.	4.r	4.r	4.r	8ff#/L	8dd#X\L
.	.	.	.	.	8aan/	8ff#\
.	.	.	.	.	8gg/J	8ee\J
*	*	*	*	*	*v	*v
=19	=19	=19	=19	=19	=19
*	*	*	*^	*	*
!	!LO:DY:b:Bi:t=p.	!	!	!	!	!
4.e/	p	8r	(4.b/	([4.g\	4.r	4.r
.	.	16E\LL	.	.	.	.
.	.	16D#X\J	.	.	.	.
.	.	[8E\J	.	.	.	.
=20	=20	=20	=20	=20	=20	=20
4.e/	.	8E\L]	4.cc#X/	4.g\]	4.r	4.r
.	.	16E\L	.	.	.	.
.	.	16D#X\J	.	.	.	.
.	.	8E\J	.	.	.	.
=21	=21	=21	=21	=21	=21	=21
*	*	*	*	*	*	*^
8d/	.	8BB\	8dd/)	8f#\)	4.r	8r	8ryy
8r	.	8r	8r	8ryy	.	(16ddd/LL	(16bb\LL
.	.	.	.	.	.	16ccc#X/J	16aa#X\J
8r	.	8r	8r	8ryy	.	8ddd/J	8bb\J
*	*	*	*v	*v	*	*	*
=22	=22	=22	=22	=22	=22	=22
*	*	*	*	*^	*	*
4.r	.	4.r	4.r	8r	8ryy	8bb/)	8dd\)
.	.	.	.	(16dd/LL	16b\LL	8raa	8r
.	.	.	.	16cc#X/J	16a#X\J	.	.
.	.	.	.	8dd/J)	8b\J	8raa	8r
=23	=23	=23	=23	=23	=23	=23	=23
*^	*	*	*	*	*	*	*
[4.d/	[4.D\	.	4.r	4.r	8raa	4r	8r	8ryy
.	.	.	.	.	(16ff#/LL	.	(16ddd/LL	16aa\LL
.	.	.	.	.	16ee/J	.	16ccc#X/J	16gg\J
!	!	!	!	!	!	!LO:SIC:o=8r:v	!	!
.	.	.	.	.	8ff#/J)	8rg	8ddd/J)	8aa\J
*	*	*	*	*	*v	*v	*	*
!!LO:LB:g=original
=24	=24	=24	=24	=24	=24	=24	=24
4.d/_	4.D\_	.	4.r	4.r	16ee/LL	16cccn/LL	16gg\LL
.	.	.	.	.	16ff#/	16ddd/	16aa\
.	.	.	.	.	16ee/	16ccc/	16gg\
.	.	.	.	.	16dd/	16bb/	16ff#\
.	.	.	.	.	16cc/	16aa/	16ee\
.	.	.	.	.	16b/JJ	16gg/JJ	16dd\JJ
=25	=25	=25	=25	=25	=25	=25	=25
4.d/_	4.D\_	.	4.r	4.r	16a/LL	16ff#/LL	16cc\LL
.	.	.	.	.	16b/	16gg/	16dd\
.	.	.	.	.	16a/	16ff#/	16cc\
.	.	.	.	.	16g/	16ee/	16b\
.	.	.	.	.	16f#/	16dd/	16a\
.	.	.	.	.	16e/JJ	16cc/JJ	16g\JJ
=26	=26	=26	=26	=26	=26	=26	=26
*	*	*	*^	*	*	*	*
!	!	!	!LO:SIC:o=4.rF:v	!	!	!	!	!
4.d/]	4.D\]	.	4.rc	8r	4.r	8d/L	8b/L	8f#\L
.	.	.	.	8D\L	.	16e/L	16cc/L	16g\L
.	.	.	.	.	.	16f#/	16dd/	16a\
.	.	.	.	8D\J	.	16g/	16ee/	16b\
.	.	.	.	.	.	16a/JJ	16ff#/JJ	16cc\JJ
*	*	*	*v	*v	*	*	*	*
=27	=27	=27	=27	=27	=27	=27	=27
*	*	*	*	*	*^	*	*
[4.d/	[4.D\	.	[4.GG\	8g/	8b/	8ryy	8gg/	8dd\
!	!	!	!	!	!LO:TX:t=P:problem=dwie 8r poprawione na nuty	!	!	!
.	.	.	.	(>16b/LL	(16gg/LL	16dd\LL	8raa	8r
.	.	.	.	16a/J	16ff#/J	16cc\J	.	.
.	.	.	.	8b/J)	8gg/J)	8dd\J	8raa	8r
*	*	*	*	*	*	*	*v	*v
=28	=28	=28	=28	=28	=28	=28	=28
!	!	!	!	!	!	!LO:SIC:o=8b\L:v	!
4.d/]	4.D\]	.	4.GG\_	8g'>/L	8ee'/L	8b'\L	4.r
!	!	!	!	!	!	!LO:SIC:o=8dd\:v	!
.	.	.	.	8b'>/	8gg'/	8dd'\	.
!	!	!	!	!	!	!LO:SIC:o=8cc\J:v	!
.	.	.	.	8a'>/J	8ff#'/J	8cc'\J	.
=29	=29	=29	=29	=29	=29	=29	=29
[4.d/	[4.D\	.	4.GG\_	8f#'>/L	8dd'/L	8a'\L	4.r
.	.	.	.	(16g/L	(16ee/L	(16b\L	.
.	.	.	.	16f#/J	16dd/J	16a\J	.
.	.	.	.	8g/J)	8ee/J)	8b\J)	.
=30	=30	=30	=30	=30	=30	=30	=30
!	!	!	!LO:MO:mod=!null:null	!	!	!	!
!	!	!	!LO:N:vis=4	!	!	!	!
4.d/]	4.D\]	.	4.GG\]	8e/L	8cc/L	8g\L	4.r
.	.	.	.	8g/	8ee/	8b\	.
.	.	.	.	8f#/J	8dd/J	8a\J	.
*	*	*	*	*	*v	*v	*
=31	=31	=31	=31	=31	=31	=31
8d/	8G\	.	8GG\	8b/L	4.r	4.r
4e/	4c\	.	4C\	16a/L	.	.
.	.	.	.	16g/J	.	.
.	.	.	.	8a^>/J	.	.
!!LO:LB:g=original
=32	=32	=32	=32	=32	=32	=32
*	*	*	*	*^	*	*
8d/	8G\	.	8GG\	8b/L	4r	4.r	4.r
!LO:MO:mod=!null:null	!LO:MO:mod=!null:null	!	!	!	!	!	!
!LO:N:vis=4.	!LO:N:vis=4.	!	!	!	!	!	!
4e/	4c\	.	4C\	16a/L	.	.	.
.	.	.	.	16g/J	.	.	.
.	.	.	.	8a^/J	8re	.	.
=33	=33	=33	=33	=33	=33	=33	=33
4.d/	8G\	.	4.r	8b/L	4r	4.r	4.r
.	4F#\	.	.	16a/L	.	.	.
.	.	.	.	16b/	.	.	.
.	.	.	.	16cc#X/	8re	.	.
.	.	.	.	16dd/JJ	.	.	.
=34	=34	=34	=34	=34	=34	=34	=34
*	*	*	*	*Xbrackettup	*	*	*
!	!	!	!	!LO:TUP:a:problem=klamra łukowa	!	!	!
4.d/	8G\	.	4.r	24b/LL	4r	4.r	4.r
.	.	.	.	24cc#X/	.	.	.
.	.	.	.	24b/	.	.	.
.	4F#\	.	.	16a/	.	.	.
.	.	.	.	16b/	.	.	.
.	.	.	.	16cc#/	8re	.	.
.	.	.	.	16dd/JJ	.	.	.
=35	=35	=35	=35	=35	=35	=35	=35
4.e/	4.E\	.	4.r	8g/L	8r	4.r	4.r
.	.	.	.	16b/L	8g\L	.	.
.	.	.	.	16ee/	.	.	.
.	.	.	.	16gg/	8b\J	.	.
.	.	.	.	16ff#/JJ	.	.	.
=36	=36	=36	=36	=36	=36	=36	=36
[4.a/	[4.A\	.	8r	16ee/LL	16cc#X\LL	4.ryy	4.r
.	.	.	.	16ff#/	16dd\	.	.
.	.	.	8A\L	16gg/	16ee\	.	.
.	.	.	.	16aa/	16ff#\J	.	.
.	.	.	8A\J	16bb/	8gg\J	.	.
.	.	.	.	16ccc#X/JJ	.	.	.
=37	=37	=37	=37	=37	=37	=37	=37
*	*	*	*	*	*	*	*^
4.a/_	4.A\_	.	[4.D\	8ddd/	8ff#\	8r	8r	8ryy
.	.	.	.	8raa	8r	(16ff#/LL	16ddd/LL	(16aa\LL
.	.	.	.	.	.	16ee/J	16ccc#X/J	16gg\J
.	.	.	.	8raa	8r	8ff#/J)	8ddd/J	8aa\J)
*	*	*	*	*v	*v	*	*	*
=38	=38	=38	=38	=38	=38	=38	=38
4.a/]	4.A\]	.	4.D\_	4.r	8dd/L	8bb/L	8ff#\L
.	.	.	.	.	8ff#/	8ddd/	8aa\
.	.	.	.	.	8ee/J	8ccc#X/J	8gg\J
=39	=39	=39	=39	=39	=39	=39	=39
[4.a/	[4.A\	.	4.D\_	4.r	(8cc#X/L	8aa/L	8ee\L
.	.	.	.	.	16dd/L	16bb/L	16ff#\L
.	.	.	.	.	16cc#/J	16aa/J	16ee\J
.	.	.	.	.	8dd/J)	8bb/J	8ff#\J
!!LO:LB:g=original
=40	=40	=40	=40	=40	=40	=40	=40
!	!	!	!	!LO:TX:t=P:problem=wykreślona 4b i 1r	!	!	!
4.a/]	4.A\]	.	4.D\]	4.r	8b'/L	8gg/L	8dd\L
.	.	.	.	.	8dd'/	8bb/	8ff#\
.	.	.	.	.	8cc'/J	8aa/J	8ee\J
*v	*v	*	*	*	*	*v	*v
=41	=41	=41	=41	=41	=41
*	*	*	*^	*	*
4.r	.	(8D\	(8a/	8d\	8ff#/L	4.r
.	.	4G\)	4b/)	4g\	(16ee/L	.
.	.	.	.	.	16dd/J	.
.	.	.	.	.	8ee^>/J)	.
=42	=42	=42	=42	=42	=42	=42
4.r	.	(8D\	(8a/	8d\	8ff#/L	4.r
.	.	4G\)	4b/)	4g\	(16ee/L	.
.	.	.	.	.	16dd/J	.
.	.	.	.	.	8ee^>/J)	.
=43	=43	=43	=43	=43	=43	=43
4.r	.	(4D\	(<4a/	4d\	(4ff#/	16fff#\LL
.	.	.	.	.	.	16ggg\
.	.	.	.	.	.	16fff#\
.	.	.	.	.	.	16eee\
.	.	8G\)	8b/)	8g\	8ee/)	16ddd\
.	.	.	.	.	.	16eee\JJ
=44	=44	=44	=44	=44	=44	=44
!	!	!	!LO:SIC:o=4a/:v	!	!LO:SIC:o=4ff#/:v	!
4.r	.	(4D\	(4a/	4d\	(4ff#/	16fff#\LL
.	.	.	.	.	.	16ggg\
.	.	.	.	.	.	16fff#\
.	.	.	.	.	.	16eee\
!	!	!	!LO:SIC:o=8b/:v	!	!LO:SIC:o=8ee/:v	!
.	.	8G\)	8b/)	8g\	8ee/)	16ddd\
.	.	.	.	.	.	16eee\JJ
=45	=45	=45	=45	=45	=45	=45
4.r	.	8D\	8a/	8d\	8ff#/	16fff#\LL
.	.	.	.	.	.	16ggg\
.	.	8r	8r	8ryy	8r	16fff#\
.	.	.	.	.	.	16eee\
.	.	8r	8r	8ryy	8r	16ddd\
.	.	.	.	.	.	16bb\JJ
*	*	*	*v	*v	*	*
=46	=46	=46	=46	=46	=46
4.r	.	4.r	4.r	4.r	16aa\LL
.	.	.	.	.	16bb\
.	.	.	.	.	16aa\
.	.	.	.	.	16gg#X\
.	.	.	.	.	16aa\
.	.	.	.	.	16ggn\JJ
=47	=47	=47	=47	=47	=47
4.r	.	4.r	16ff#\LL	4.r	4.r
.	.	.	16gg\	.	.
.	.	.	16ff#\	.	.
.	.	.	16ee\	.	.
.	.	.	16dd\	.	.
.	.	.	16b\JJ	.	.
!!LO:LB:g=original
=48	=48	=48	=48	=48	=48
4.r	.	4.r	(16a\LL	4.r	4.r
.	.	.	16b\	.	.
.	.	.	16a\	.	.
.	.	.	16g#X\	.	.
.	.	.	16a\	.	.
.	.	.	16g\JJ)	.	.
=49	=49	=49	=49	=49	=49
4.r	.	4.r	(16f#/LL	4.r	4.r
.	.	.	16g/	.	.
.	.	.	16f#/	.	.
.	.	.	16g/	.	.
.	.	.	16f#/	.	.
.	.	.	16g/JJ	.	.
=50	=50	=50	=50	=50	=50
4.r	.	4.r	16f#/LL	4.r	4.r
.	.	.	16g/	.	.
.	.	.	16f#/	.	.
.	.	.	16g/	.	.
.	.	.	16f#/	.	.
.	.	.	16g/JJ)	.	.
=51	=51	=51	=51	=51	=51
*	*	*	*	*^	*
*	*	*	*rep	*	*	*
4.r	.	(4.A#X\	(16f#/LL	[4.ff#/	4.ee\	[4ff#\
.	.	.	16g/	.	.	.
.	.	.	16f#/	.	.	.
.	.	.	16g/	.	.	.
.	.	.	16f#/	.	.	8ff#\]
.	.	.	16g/JJ)	.	.	.
*	*	*	*Xrep	*	*	*
=52	=52	=52	=52	=52	=52	=52
*	*	*	*rep	*	*	*
4.r	.	4.B\	(16f#/LL	4.ff#/_	4.dd\	(8ff#\L
.	.	.	16g/	.	.	.
.	.	.	16f#/	.	.	8bb\
.	.	.	16g/	.	.	.
.	.	.	16f#/	.	.	8ddd\J)
.	.	.	16g/JJ)	.	.	.
*	*	*	*Xrep	*	*	*
=53	=53	=53	=53	=53	=53	=53
*	*	*	*rep	*	*	*
4.r	.	4.F#\	(16f#/LL	4.ff#/_	4.ee\	(8ccc#X\L
.	.	.	16g/	.	.	.
.	.	.	16f#/	.	.	8ddd\
.	.	.	16g/	.	.	.
.	.	.	16f#/	.	.	8aa#X\J
.	.	.	16g/JJ)	.	.	.
*	*	*	*Xrep	*	*	*
=54	=54	=54	=54	=54	=54	=54
*	*	*	*rep	*	*	*
8r	.	4.B\)	(16f#/LL	4.ff#/]	4.dd\	8bb\L
.	.	.	16g/	.	.	.
8F#/L	.	.	16f#/	.	.	8ccc#X\
.	.	.	16g/	.	.	.
8F#/J	.	.	16f#/	.	.	8ddd\J)
.	.	.	16g/JJ)	.	.	.
*	*	*	*Xrep	*	*	*
=55	=55	=55	=55	=55	=55	=55
*	*	*	*rep	*	*	*
!	!	!	!	!	!LO:SIC:o=4.cc\:v	!
[>4.F#/	.	[4.A#X\	(16f#/LL	[4.ff#/	4.cc#\	(4fff#\
.	.	.	16g/	.	.	.
.	.	.	16f#/	.	.	.
.	.	.	16g/	.	.	.
.	.	.	16f#/	.	.	8eee\)
.	.	.	16g/JJ)	.	.	.
*	*	*	*Xrep	*	*	*
!!LO:LB:g=original
=56	=56	=56	=56	=56	=56	=56
*	*	*	*rep	*	*	*
!LO:TX:t=P:problem=koniec łuku na dole	!	!	!	!	!	!
4.F#/]	.	8A#\L]	(16f#/LL	4.ff#/]	4.ee\	(8eee\L
.	.	.	16g/	.	.	.
.	.	8G#X\	16f#/	.	.	8ddd\
.	.	.	16g/	.	.	.
.	.	8A#X\J	16f#/	.	.	8ccc#X\J)
.	.	.	16g/JJ)	.	.	.
*	*	*	*Xrep	*	*	*
=57	=57	=57	=57	=57	=57	=57
!	!	!	!LO:TX:t=P:problem=repetycja poprawiona na nuty	!	!	!
[4.BB/	.	4B\	16f#/LL	[4.ff#/	4.dd\	(8bb\L
.	.	.	16g/	.	.	.
.	.	.	16f#/	.	.	8aa#X\
.	.	.	16e/	.	.	.
.	.	8F#\	16d/	.	.	8bb\J)
.	.	.	16c#X/JJ	.	.	.
=58	=58	=58	=58	=58	=58	=58
*	*	*	*^	*	*	*
!	!	!	!	!	!LO:MO:mod=!null:null	!	!
!	!	!	!	!	!LO:N:vis=4	!	!
((4BB/]	.	4.D\	4.r	16B\LL	4.ff#/]	8dd\L	4.bb^\
.	.	.	.	16c#X\	.	.	.
.	.	.	.	16B\	.	(>8a#X\	.
.	.	.	.	16c#\	.	.	.
8B/))	.	.	.	16B\	.	8b\J)	.
.	.	.	.	16c#\JJ	.	.	.
*	*	*	*	*	*v	*v	*
=59	=59	=59	=59	=59	=59	=59
*	*	*	*	*	*	*^
!	!	!	!	!	!	!	!LO:MO:mod=!null:null
!	!	!	!	!	!	!	!LO:N:vis=4
4B/	.	4.D#X\	4.r	16B\LL	[4.b/	[4.bb/	4.aa\
.	.	.	.	16cn\	.	.	.
.	.	.	.	16B\	.	.	.
.	.	.	.	16c\	.	.	.
8B/	.	.	.	16B\	.	.	.
.	.	.	.	16c\JJ	.	.	.
=60	=60	=60	=60	=60	=60	=60	=60
*	*	*	*rep	*rep	*	*	*
(8B/L	.	4.E\	4.ryy	16B\LL	4.b/_	4.bb/_	4.gg\
.	.	.	.	16c\	.	.	.
8e/	.	.	.	16B\	.	.	.
.	.	.	.	16c\	.	.	.
8g/J)	.	.	.	16B\	.	.	.
.	.	.	.	16c\JJ	.	.	.
*	*	*	*Xrep	*Xrep	*	*	*
=61	=61	=61	=61	=61	=61	=61	=61
*	*	*^	*	*	*	*	*
*	*	*	*	*rep	*rep	*	*	*
(8f#/L	.	4.A/	4.BB\	4.ryy	16B\LL	4.b/_	4.bb/_	4.aa\
.	.	.	.	.	16c\	.	.	.
!LO:SIC:o=8g/):v	!	!	!	!	!	!	!	!
8g/	.	.	.	.	16B\	.	.	.
.	.	.	.	.	16c\	.	.	.
!LO:SIC:o=8d#X/J:v	!	!	!	!	!	!	!	!
8d#X/J)	.	.	.	.	16B\	.	.	.
.	.	.	.	.	16c\JJ	.	.	.
*	*	*	*	*Xrep	*Xrep	*	*	*
=62	=62	=62	=62	=62	=62	=62	=62	=62
*	*	*	*	*rep	*rep	*	*	*
(>8e/L	.	4.G/	4.E\	4.ryy	16B\LL	4.b/]	4.bb/]	4.gg\
.	.	.	.	.	16c\	.	.	.
8f#/	.	.	.	.	16B\	.	.	.
.	.	.	.	.	16c\	.	.	.
8g/J)	.	.	.	.	16B\	.	.	.
.	.	.	.	.	16c\JJ	.	.	.
*	*	*	*	*Xrep	*Xrep	*	*	*
=63	=63	=63	=63	=63	=63	=63	=63	=63
*	*	*	*	*	*	*^	*	*
*	*	*	*	*rep	*rep	*	*	*	*
(4b/	.	[4.F#/	[4.BB\	4.ryy	16B\LL	[4.dd#X/	[4.b\	[4.bb/	4.bb\
.	.	.	.	.	16c\	.	.	.	.
.	.	.	.	.	16B\	.	.	.	.
.	.	.	.	.	16c\	.	.	.	.
8a/)	.	.	.	.	16B\	.	.	.	.
.	.	.	.	.	16c\JJ	.	.	.	.
*	*	*	*	*Xrep	*Xrep	*	*	*	*
*	*	*	*	*	*	*	*	*v	*v
!!LO:LB:g=original
=64	=64	=64	=64	=64	=64	=64	=64	=64
*	*	*	*	*rep	*rep	*	*	*
!	!	!	!	!	!	!	!LO:MO:mod=!null:null	!
!	!	!	!	!	!	!	!LO:N:vis=4	!LO:TX:t=P:problem=brak zakończenia ligatury
(8a/L	.	4.F#/]	4.BB\]	4.ryy	16B\LL	4.dd#/]	4.b\]	4.bb/_
.	.	.	.	.	16c\	.	.	.
8g/	.	.	.	.	16B\	.	.	.
.	.	.	.	.	16c\	.	.	.
8f#/J	.	.	.	.	16B\	.	.	.
.	.	.	.	.	16c\JJ	.	.	.
*	*	*	*	*Xrep	*Xrep	*	*	*
*	*	*	*	*v	*v	*	*	*
=65	=65	=65	=65	=65	=65	=65	=65
8e/L	.	4.G/	4.G 4.E\	(16B/LL	4.ee/	4.g\	4.bb/]
.	.	.	.	16c/	.	.	.
8d#X/	.	.	.	16B/	.	.	.
.	.	.	.	16c/J	.	.	.
8e/J)	.	.	.	8B/J)	.	.	.
*	*	*v	*v	*	*	*	*
=66	=66	=66	=66	=66	=66	=66
*	*	*	*	*	*	*^
4.e/	.	4.r	4.r	(16ee/LL	4re	(16bb/LL	(16gg\LL
.	.	.	.	16dd#X/	.	16ccc/	16aa\
.	.	.	.	16ee/	.	16bb/	16gg\
.	.	.	.	16dd#/J	.	16ccc/J	16aa\J
.	.	.	.	8ee/J)	8re	8bb/J)	8gg\J)
*	*	*	*	*v	*v	*	*
*	*	*	*	*	*v	*v
=67	=67	=67	=67	=67	=67
4.r	.	(8E\L	4.r	4.r	4.r
.	.	8D#X\	.	.	.
.	.	8E\J)	.	.	.
=68	=68	=68	=68	=68	=68
*	*	*	*^	*	*
4.r	.	4.E\	(16g/LL	(16e\LL	(>16b/LL	4.r
.	.	.	16a/	16d#X\	16cc/	.
.	.	.	16g/	16e\	16b/	.
.	.	.	16a/J	16d#\J	16cc/J	.
.	.	.	8g/J)	8e\J)	8b/J)	.
*	*	*	*v	*v	*	*
=69	=69	=69	=69	=69	=69
8E/L	.	4.r	4.r	4.r	4.r
8D#X/	.	.	.	.	.
8E/J	.	.	.	.	.
=70	=70	=70	=70	=70	=70
!	!	!	!LO:MO:mod=!LO&colon;TX&colon;a&colon;t=cl II	!	!
!	!	!	!LO:TX:a:t=Cla II°.	!	!
[4.E/	.	(16G\LL	(>16B/LL	4.r	4.r
.	.	16A\	16c/	.	.
.	.	16G\	16B/	.	.
.	.	16A\J	16c/J	.	.
.	.	[8G\J)	8B/J)	.	.
=71	=71	=71	=71	=71	=71
*	*	*	*^	*	*
4.E/]	.	8G\L]	8r	8B\L	4.r	4.r
.	.	8G'\	8e/L	8B\	.	.
.	.	8B'\J	8g/J	8e\J	.	.
!!LO:PB:g=original
=72	=72	=72	=72	=72	=72	=72
*	*	*	*	*	*^	*
[4.E/	.	[4.e\	8b/	8g\	8r	8ryy	4.r
!	!	!	!LO:TX:t=P:problem=chorągiewki poprawione na belkę	!	!	!	!
!	!	!	!	!	!	!LO:SIC:o=8b\L:v	!
.	.	.	8g'/L	8r	8ee'/L	8b'\L	.
!	!	!	!	!	!	!LO:SIC:o=8ee\J:v	!
.	.	.	8b'/J	8r	8gg'/J	8ee'\J	.
=73	=73	=73	=73	=73	=73	=73	=73
*	*	*	*	*	*	*	*^
4.E/_	.	4.e\]	8ee/	8rf	8bb/	8gg\	8r	8ryy
!	!	!	!	!	!	!	!	!LO:SIC:o=8bb\L:v
.	.	.	8raa	8r	8gg'/L	8r	8eee'/L	8bb'\L
!	!	!	!	!	!	!	!	!LO:SIC:o=8eee\J:v
.	.	.	8raa	8r	8bb'/J	8r	8ggg'/J	8eee'\J
*	*	*	*v	*v	*	*	*	*
=74	=74	=74	=74	=74	=74	=74	=74
*	*	*^	*	*	*	*	*
!	!	!	!	!	!	!	!	!LO:SIC:o=8bb\L:v
4.E/]	.	[4.e/	4.r	4.r	8gg'/L	4.r	8eee'/L	8bb'\L
!	!	!	!	!	!	!	!	!LO:SIC:o=8eee\:v
.	.	.	.	.	8bb'/	.	8ggg'/	8eee'\
!	!	!	!	!	!	!	!	!LO:SIC:o=8bb\J:v
.	.	.	.	.	8gg'/J	.	8eee'/J	8bb'\J
=75	=75	=75	=75	=75	=75	=75	=75	=75
*^	*	*	*	*	*	*	*	*
!	!	!	!	!	!	!	!	!	!LO:SIC:o=8eee\L:v
[4.c#X/	[4.F#X\	.	4.e/_	4.r	4.r	8bb'/L	4.r	8ggg'/L	8eee'\L
!	!	!	!	!	!	!	!	!	!LO:SIC:o=8bb\:v
.	.	.	.	.	.	8gg'/	.	8eee'/	8bb'\
!	!	!	!	!	!	!	!	!	!LO:SIC:o=8eee\J:v
.	.	.	.	.	.	8bb'/J	.	8ggg'/J	8eee'\J
=76	=76	=76	=76	=76	=76	=76	=76	=76	=76
*	*	*	*	*	*^	*	*	*	*
!	!	!	!	!	!	!LO:SIC:o=8ryy:v	!	!	!	!
4.c#/]	4.F#\]	.	4.e/]	8r	16r	8rB	4.aa#X/	4.r	4.fff#^/	4.ccc#X\
.	.	.	.	.	(<16f#^/LL	.	.	.	.	.
.	.	.	.	8F#'>\L	16a#X^/	8ryy	.	.	.	.
.	.	.	.	.	16cc#X^/J	.	.	.	.	.
.	.	.	.	8FF#'>\J	8ff#^>/J)	8ryy	.	.	.	.
*	*	*	*	*	*v	*v	*	*	*	*
=77	=77	=77	=77	=77	=77	=77	=77	=77	=77
!	!	!	!	!	!	!LO:SIC:o=8bb/L:v	!	!	!LO:SIC:o=8eee\L:v
[4.c#X/	[4.F#X\	.	[4.e/	4.r	4.r	8bb'/L	4.r	8ggg'/L	8eee'\L
!	!	!	!	!	!	!LO:SIC:o=8gg/:v	!	!	!LO:SIC:o=8bb\:v
.	.	.	.	.	.	8gg'/	.	8eee'/	8bb'\
!	!	!	!	!	!	!LO:SIC:o=8bb/J:v	!	!	!LO:SIC:o=8eee\J:v
.	.	.	.	.	.	8bb'/J	.	8ggg'/J	8eee'\J
=78	=78	=78	=78	=78	=78	=78	=78	=78	=78
*	*	*	*	*	*^	*	*	*	*
!	!	!	!	!	!	!LO:SIC:o=8ryy:v	!	!	!	!
4.c#/]	4.F#\]	.	4.e/]	8r	16r	8rB	4.aa#X/	4.ff#\	4.fff#/	4.ccc#X\
!	!	!	!	!	!LO:SIC:o=(16f#/LL:v	!	!	!	!	!
.	.	.	.	.	(16f#^/LL	.	.	.	.	.
.	.	.	.	8F#'>\L	16a#X^/	8ryy	.	.	.	.
.	.	.	.	.	16cc#X^/J	.	.	.	.	.
.	.	.	.	8FF#'>\J	8ff#^>/J)	8ryy	.	.	.	.
*	*	*	*v	*v	*	*	*	*	*	*
=79	=79	=79	=79	=79	=79	=79	=79	=79	=79
!	!	!	!	!	!LO:SIC:o=8ryy:v	!LO:TX:t=P:problem=4.dd poprawione na 4ff#	!	!	!
4.c#X/	4.F#X\	.	4.e/	16r	8rB	4.aa#X/	4.ff#\	4.fff#/	4.ccc#X\
.	.	.	.	(16f#^/LL	.	.	.	.	.
!	!	!	!	!LO:SIC:o=16a#X/:v	!	!	!	!	!
.	.	.	.	16a#X^/	8ryy	.	.	.	.
.	.	.	.	16cc#X^/J	.	.	.	.	.
.	.	.	.	8ff#^/J)	8ryy	.	.	.	.
*	*	*	*	*v	*v	*	*	*	*
!!LO:LB:g=original
=80	=80	=80	=80	=80	=80	=80	=80	=80
4.c#X/	4.F#X\	.	4.e\	16r	4.aa#X/	4.ff#\	4.fff#/	4.ccc#X\
.	.	.	.	(16f#/LL	.	.	.	.
.	.	.	.	16a#X/	.	.	.	.
.	.	.	.	16cc#X/J	.	.	.	.
.	.	.	.	[>8ff#/J)	.	.	.	.
*	*	*	*	*	*v	*v	*	*
*v	*v	*	*	*	*	*v	*v
=81	=81	=81	=81	=81	=81
*	*	*	*^	*	*
4.r	.	4.r	(<8ff#/L]	8re	4.r	4.r
.	.	.	8cc#X/	8rc	.	.
.	.	.	8ff#/J	8rc	.	.
=82	=82	=82	=82	=82	=82	=82
4.r	.	4.r	8cc#X/L	8rc	4.r	4.r
.	.	.	8ff#/	8re	.	.
.	.	.	8cc#/J)	8re	.	.
=83	=83	=83	=83	=83	=83	=83
*	*	*^	*	*	*	*
4.r	.	(4.f#/	4.r	(8ff#/L	4a#X\	4.r	4.r
.	.	.	.	8cc#X/	.	.	.
.	.	.	.	8dd#X/J	8a\	.	.
=84	=84	=84	=84	=84	=84	=84	=84
4.r	.	4c#X/	4.r	8ee/L	4g#X\	4.r	4.r
.	.	.	.	8a#X/)	.	.	.
.	.	8d#X/)	.	(8a#/J	8f##X\	.	.
=85	=85	=85	=85	=85	=85	=85	=85
!	!	!	!	!	!LO:MO:mod=!null:null	!	!
!	!	!	!	!	!LO:N:acc=n#	!	!
4.r	.	(4B#X/	4.r	8dd#X/L	4f#X\	4.r	4.r
.	.	.	.	8g#X/J)	.	.	.
.	.	8c#X/)	.	8g#'/	8e#X\	.	.
=86	=86	=86	=86	=86	=86	=86	=86
!	!	!	!	!	!LO:MO:mod=!null:null	!	!
!	!	!	!	!	!LO:N:acc=n#	!	!
4.r	.	[<4.F#/	4.r	(8g#X/L	[4.eX\	4.r	4.r
.	.	.	.	8dd#X/	.	.	.
.	.	.	.	8g#/J	.	.	.
=87	=87	=87	=87	=87	=87	=87	=87
4.r	.	4.F#/]	4.r	8dd#X/L	4.e\_	4.r	4.r
.	.	.	.	8g#X/	.	.	.
.	.	.	.	8dd#/J)	.	.	.
!!LO:LB:g=original
=88	=88	=88	=88	=88	=88	=88	=88
!	!	!LO:S:s=1:note:problem=note-level slur	!	!	!	!	!
4.r	.	(4.F#/	4.r	(8g#X/L	4.e\]	4.r	4.r
.	.	.	.	8dd#X/	.	.	.
.	.	.	.	8a#X/J	.	.	.
=89	=89	=89	=89	=89	=89	=89	=89
*^	*	*	*	*	*	*	*
!	!	!	!LO:S:s=1:note:problem=note-level slur	!	!	!	!	!
!	!LO:TX:t=P:problem=# poprawiony na 8r	!	!	!	!	!	!	!
8re	8ree	.	[4.B 4.BB/)	[4.BB\	[4.f#/)	[4.d#X\	4.r	4.r
!	!	!LO:DY:a	!	!	!	!	!	!
*	*	*^	*	*	*	*	*	*
!	!	!	!LO:MO:mod=!LO&colon;DY&colon;a	!	!	!	!	!	!
!	!	!	!LO:DY:t= :mod=%s	!	!	!	!	!	!
!	!	!	!LO:MO:mod=!LO&colon;DY&colon;ed=brack	!	!	!	!	!	!
!	!	!	!null	!	!	!	!	!	!
!	!LO:SIC:o=16F#X\LL:v	!	!	!	!	!	!	!	!
16f#X'/LL	16F#X'\LL	p	p	.	.	.	.	.	.
*	*	*v	*v	*	*	*	*	*	*
!	!LO:SIC:o=16F#\J:v	!	!	!	!	!	!	!
16f#'/J	16F#'\J	.	.	.	.	.	.	.
!	!LO:SIC:o=[8F#\J:v	!	!	!	!	!	!	!
[8f#'/J	[8F#'\J	.	.	.	.	.	.	.
=90	=90	=90	=90	=90	=90	=90	=90	=90
8f#/L]	8F#\L]	.	4.B] 4.BB/	4.BB\]	4.f#/]	4.d#\]	4.r	4.r
!	!LO:SIC:o=8F#X\:v	!	!	!	!	!	!	!
8f#X'/	8F#X'\	.	.	.	.	.	.	.
!	!LO:SIC:o=8F#\J:v	!	!	!	!	!	!	!
8f#'/J	8F#'\J	.	.	.	.	.	.	.
=91	=91	=91	=91	=91	=91	=91	=91	=91
8re	8ree	.	[4.B/	[4.BB\	[4.f#/	[4.d#X\	4.r	4.r
!	!LO:SIC:o=16F#X\LL:v	!	!	!	!	!	!	!
16f#X'</LL	16F#X'\LL	.	.	.	.	.	.	.
!	!LO:SIC:o=16F#\J:v	!	!	!	!	!	!	!
16f#'</J	16F#'\J	.	.	.	.	.	.	.
!	!LO:SIC:o=[8F#\J:v	!	!	!	!	!	!	!
[<8f#^/J	[8F#^\J	.	.	.	.	.	.	.
=92	=92	=92	=92	=92	=92	=92	=92	=92
8f#/L]	8F#\L]	.	4.B/]	4.BB\]	4.f#/]	4.d#\]	4.r	4.r
8f#X/	8F#X\	.	.	.	.	.	.	.
8f#/J	8F#\J	.	.	.	.	.	.	.
=93	=93	=93	=93	=93	=93	=93	=93	=93
*	*	*	*	*	*	*	*	*^
8re	8ree	.	[4.F#/	[4.BB\	8f#/	8d#X\	8r	8r	8ryy
16f#X/LL	16F#X\LL	.	.	.	8rff	8r	(>16dd#X/LL	(16bb/LL	16ff#\LL
16f#/J	16F#\J	.	.	.	.	.	16cc#X/J	16aa#X/J	16ee\J
[<8f#/J	[8F#\J	.	.	.	8rff	8r	8dd#/J)	8bb/J)	8ff#\J
=94	=94	=94	=94	=94	=94	=94	=94	=94	=94
!	!	!	!	!	!	!	!	!	!LO:SIC:o=8dd#X\L:v
8f#/L]	8F#\L]	.	4.F#/]	4.BB\]	8rff	4r	8b'>/L	8gg#X'/L	8dd#X'\L
!	!	!	!	!	!	!	!	!	!LO:SIC:o=8ff#\:v
8f#X/	8F#X\	.	.	.	8rff	.	8dd#X'>/	8bb'/	8ff#'\
!	!	!	!	!	!	!	!	!	!LO:SIC:o=8ee\J:v
8f#/J	8F#\J	.	.	.	8rff	8r	8cc#X'>/J	8aa#X'/J	8ee'\J
=95	=95	=95	=95	=95	=95	=95	=95	=95	=95
8re	8ree	.	[4.F#/	[4.BB\	8rff	4r	8a#X/	8ff#/	8cc#X\
16f#X/LL	16F#X\LL	.	.	.	8rff	.	(16b/LL	(16gg#X/LL	(16dd#X\LL
16f#/J	16F#\J	.	.	.	.	.	16a#X/J	16ff#/J	16cc#\J
!LO:TX:t=P:problem=brak początku ligatur	!	!	!	!	!	!	!	!	!
[8f#/J	[8F#\J	.	.	.	8rff	8r	8b/J)	8gg#/J)	8dd#\J)
*	*	*	*	*	*v	*v	*	*	*
!!LO:PB:g=original
=96	=96	=96	=96	=96	=96	=96	=96	=96
8f#/L]	8F#\L]	.	4.F#/]	4.BB\]	4.r	8g#X/L	8ee/L	8b\L
8f#X/	8F#X\	.	.	.	.	8b/	8gg#X/	8dd#X\
8f#/J	8F#\J	.	.	.	.	8a#X/J	8ff#/J	8cc#X\J
=97	=97	=97	=97	=97	=97	=97	=97	=97
*	*	*	*	*	*^	*	*	*
8f#X/	8F#X\	.	8B/	8BB\	8dd#X/L	8f#\	8b/	8ff#/	8dd#X\
8rff	8r	.	(4e^/	8rGG	(16cc#X^/L	(>4g#X^\	8r	8rff	8r
.	.	.	.	.	16b/J	.	.	.	.
8rff	8r	.	.	8rGG	8cc#/J)	.	8r	8rff	8r
*	*	*	*	*	*	*	*	*v	*v
=98	=98	=98	=98	=98	=98	=98	=98	=98
4.r	8re	.	8B/)	8rGG	8dd#X/L	8f#\)	4.r	4.r
.	8re	.	4e/	8rGG	(16cc#X^/L	4g#X^\	.	.
.	.	.	.	.	16b/J	.	.	.
.	8re	.	.	8rGG	8cc#/J)	.	.	.
*	*	*	*	*	*v	*v	*	*
=99	=99	=99	=99	=99	=99	=99	=99
*	*	*	*	*	*	*^	*
!	!	!	!	!	!LO:MO:mod=!LO&colon;TX&colon;a&colon;t=cl II	!	!	!
!	!	!	!	!	!LO:TX:b:t=II	!	!	!
8e-X/	8e-\	.	4.r	8rGG	4.b-\	8gg/L	8ee-X\L	4.r
!LO:SIC:o=4B/:v	!LO:SIC:o=4B\:v	!	!	!	!	!	!	!
4B-/	4B-\	.	.	8rGG	.	(16ffn^/L	16dd^\L	.
.	.	.	.	.	.	16ee-/J	16cc\J	.
.	.	.	.	8rGG	.	8ff/J)	8dd\J	.
*	*	*	*v	*v	*	*	*	*
=100	=100	=100	=100	=100	=100	=100	=100
!LO:SIC:o=4.b^/:v	!	!	!	!	!	!	!
4.b-/	8e-X\	.	4.r	(8g\	8gg/L	8ee-X\L	4.r
!	!LO:SIC:o=[4B\:v	!	!	!	!	!	!
.	[4B-\	.	.	4a-X\	(16ffn^/L	16dd^\L	.
.	.	.	.	.	16ee-/J	16cc\J	.
.	.	.	.	.	8ff/J)	8dd\J	.
=101	=101	=101	=101	=101	=101	=101	=101
!LO:SIC:o=(8b/L:v	!LO:SIC:o=4.B\_:v	!	!	!	!	!	!
(8b-/L	4.B-\_	.	[4.E-X\	8g\)	[4.gg/	[4.ee-X\	4.r
8g/	.	.	.	8r	.	.	.
8f#/J	.	.	.	8r	.	.	.
=102	=102	=102	=102	=102	=102	=102	=102
!	!LO:SIC:o=8B\]:v	!	!	!	!	!	!
8e-X/L	8B-\]	.	4.E-\_	4.r	4.gg/_	4.ee-\_	4.r
8c/	8r	.	.	.	.	.	.
!LO:SIC:o=8B/J):v	!	!	!	!	!	!	!
8B-/J	8r	.	.	.	.	.	.
*v	*v	*	*	*	*	*	*
=103	=103	=103	=103	=103	=103	=103
!LO:MO:mod=!LO&colon;TX&colon;a&colon;t=cor I	!	!	!	!	!	!
!LO:TX:a:t=1°	!	!	!	!	!	!
8G/L	.	4.E-\_	4.r	8gg/]	8ee-\]	4.r
8A/	.	.	.	8rff	8r	.
!LO:SIC:o=8B/J:v	!	!	!	!	!	!
8fn/J	.	.	.	8rff	8r	.
*	*	*	*	*v	*v	*
!!LO:LB:g=original
=104	=104	=104	=104	=104	=104
*^	*	*	*	*	*
4c/	8rc	.	4.E-X\]	4.r	4.r	4.r
.	8rc	.	.	.	.	.
8c#X/	8rc	.	.	.	.	.
=105	=105	=105	=105	=105	=105	=105
*	*	*	*	*	*^	*^
!	!	!	!	!LO:MO:mod=!LO&colon;TX&colon;a&colon;t=cl I	!	!	!	!
!	!	!	!	!	!LO:MO:mod=!null:null	!	!	!
!	!	!	!	!LO:TX:a:t=Cltt 1°	!LO:TX:a:t=Ohne 1°	!	!	!
[4.d/	8rc	.	[4.D\	(8g/	[4.dd/	(>8g\	8bb/L	8gg\L
.	8rc	.	.	4d^>/)	.	4dd^>\)	16aa/L	16ff#\L
.	.	.	.	.	.	.	16gg/J	16ee\J
.	8rc	.	.	.	.	.	8aa/J	8ff#\J
=106	=106	=106	=106	=106	=106	=106	=106	=106
4.d/_	8rc	.	4.D\]	(8g/	4.dd/]	(>8g\	8bb/L	8gg\L
.	8rc	.	.	4d^>/)	.	4dd^>\)	16aa/L	16ff#\L
.	.	.	.	.	.	.	16gg/J	16ee\J
.	8rc	.	.	.	.	.	8aa/J	8ff#\J
=107	=107	=107	=107	=107	=107	=107	=107	=107
8d/L]	8r	.	[4.D\	(8g/	[4.dd/	8g\	8bb/L	8gg\L
16d'/L	16D'>\LL	.	.	[4d/)	.	[4dd^>\	16aa/L	16ff#\L
16d'/J	16D'>\J	.	.	.	.	.	16gg/	16ee\
!LO:SIC:o=[8d'/J:v	!	!	!	!	!	!	!	!
[8d/J	[8D\J	.	.	.	.	.	16aa/	16ff#\
.	.	.	.	.	.	.	16bb/JJ	16gg\JJ
=108	=108	=108	=108	=108	=108	=108	=108	=108
8d/L]	8D\L]	.	4.D\]	8d/L]	4.dd/]	(4.dd\]	16ccc/LL	16aa\LL
.	.	.	.	.	.	.	16ccc#X/JJ	16gg\JJ
16d/L	16D\L	.	.	(16dd/L	.	.	[4dddTT/	4ff#\
16d/J	16D\J	.	.	16cc/	.	.	.	.
8d/J	8D\J	.	.	16b/	.	.	.	.
.	.	.	.	16a/JJ	.	.	.	.
=109	=109	=109	=109	=109	=109	=109	=109	=109
*	*	*	*^	*^	*	*	*	*
8r	8rc	.	[4.D/	4.D [4.GG\	8b/)	8re	8dd/)	8g\)	4.dddTTT/_	8gg\
16d/LL	16D\LL	.	.	.	16dd/LL	8re	(16gg/LL	(>16b\LL	.	8r
16d/J	16D\J	.	.	.	16cc/J	.	16ff#/J	16a\J	.	.
[8d/J	[8D\J	.	.	.	8dd/J	8re	8gg/J)	8b\J)	.	8r
*	*	*	*	*	*	*	*	*	*v	*v
=110	=110	=110	=110	=110	=110	=110	=110	=110	=110
!	!	!	!	!	!	!	!	!LO:SIC:o=8g\L:v	!
8d/L]	8D\L]	.	4.D/]	4.GG\]	8b/L	8re	8ee'/L	8g'\L	4.dddTTT/_
!	!	!	!	!	!	!	!	!LO:SIC:o=8b\:v	!
8d/	8D\	.	.	.	8dd/	8re	8gg'/	8b'\	.
!	!	!	!	!	!	!	!LO:SIC:o=8ff#/J:v	!	!
!	!	!	!	!	!	!	!	!LO:SIC:o=8a\J:v	!
8d/J	8D\J	.	.	.	8cc/J	8re	8ff#'/J	8a'\J	.
=111	=111	=111	=111	=111	=111	=111	=111	=111	=111
!	!	!	!	!	!	!	!	!	!LO:MO:mod=!null:null
!	!	!	!	!	!	!	!	!	!LO:N:vis=4
8r	8rc	.	[4.D/	[4.GG\	8a/L	8r	8dd/L	8f#\L	4.dddTTT/_
16d/LL	16D\LL	.	.	.	16b/L	8r	(16ee/L	(>16g\L	.
16d/J	16D\J	.	.	.	16a/J	.	16cc/J	16f#\J	.
[8d/J	[8D\J	.	.	.	8b/J	8r	8ee/J)	8g\J)	.
*	*	*	*	*	*v	*v	*	*	*
!!LO:LB:g=original
=112	=112	=112	=112	=112	=112	=112	=112	=112
!	!	!	!	!	!	!	!	!LO:TX:t=P:problem=koniec łuku na górze
8d/L]	8D\L]	.	4.D/]	4.GG\]	8g/L	8cc/L	8e\L	(4.dddTTT/_
8d/	8D\	.	.	.	8b/	8ee/	8g\	.
8d/J	8D\J	.	.	.	8a/J	8dd/J	8f#\J	.
*	*	*	*	*	*	*v	*v	*
=113	=113	=113	=113	=113	=113	=113	=113
*	*	*	*	*	*	*	*8va
!	!	!	!	!	!	!	!LO:TUP:b:problem=klamra łukowa
!	!	!	!	!	!	!	!LO:TX:t=P:problem=triole (nie 9)
!	!	!	!LO:SIC:o=4.r:v	!	!	!	!
(8d/	(>8G\	.	4.rd	(>8GG\	8b/L	4.r	24ddd/LL]
.	.	.	.	.	.	.	24eee/
.	.	.	.	.	.	.	24ddd/J
!	!	!	!	!	!	!	!LO:TUP:b:problem=klamra łukowa
4e^/)	4c\)	.	.	4C\)	(16a/L	.	24eee/L
.	.	.	.	.	.	.	24ggg/
.	.	.	.	.	16g/J	.	.
.	.	.	.	.	.	.	24eee/J
!	!	!	!	!	!	!	!LO:TUP:b:problem=klamra łukowa
.	.	.	.	.	8a^>/J)	.	24ggg/L
.	.	.	.	.	.	.	24eee/
.	.	.	.	.	.	.	24ggg/JJ
*	*	*	*v	*v	*	*	*
=114	=114	=114	=114	=114	=114	=114
!	!	!	!	!	!	!LO:TUP:b:problem=klamra łukowa
(8d/	(>8G\	.	(8GG\	8b/L	4.r	24ddd/LL
.	.	.	.	.	.	24eee/
.	.	.	.	.	.	24ddd/J
!	!	!	!	!	!	!LO:TUP:b:problem=klamra łukowa
4e^/)	4c\)	.	4C\)	(16a/L	.	24eee/L
.	.	.	.	.	.	24ggg/
.	.	.	.	16g/J	.	.
.	.	.	.	.	.	24eee/J
!	!	!	!	!	!	!LO:TUP:b:problem=klamra łukowa
.	.	.	.	8a^>/J)	.	24ggg/L
.	.	.	.	.	.	24eee/
.	.	.	.	.	.	24ccc/JJ
*	*	*	*	*	*	*X8va
=115	=115	=115	=115	=115	=115	=115
(4d^/	(4G\	.	4.r	(4b/	4.r	16bb\LL
.	.	.	.	.	.	16ccc\
.	.	.	.	.	.	16bb\
.	.	.	.	.	.	16aa\
8e/)	8c\)	.	.	8a/)	.	16gg\
.	.	.	.	.	.	16aa\JJ
=116	=116	=116	=116	=116	=116	=116
!LO:SIC:o=(4d/:v	!	!	!	!	!	!
(4d^/	(4G\	.	4.r	(4b/	4.r	16bb\LL
.	.	.	.	.	.	16ccc\
.	.	.	.	.	.	16bb\
.	.	.	.	.	.	16aa\
8e/)	8c\)	.	.	8a/)	.	16gg\
.	.	.	.	.	.	16aa\JJ
=117	=117	=117	=117	=117	=117	=117
*	*	*	*^	*	*	*
8d/	8G\	.	4.r	8GG\	8b/	4.r	(<16bb\LL
.	.	.	.	.	.	.	16ccc\
8rcc	8rd	.	.	8r	8r	.	16bb\
.	.	.	.	.	.	.	16aa\
8rcc	8rd	.	.	8r	8r	.	16gg\
.	.	.	.	.	.	.	16ee\JJ)
*v	*v	*	*	*	*	*	*
*	*	*v	*v	*	*	*
=118	=118	=118	=118	=118	=118
4.r	.	4.r	4.r	(>16dd/LL	4.r
.	.	.	.	16ee/	.
.	.	.	.	16dd/	.
.	.	.	.	16cc#X/	.
.	.	.	.	16dd/	.
.	.	.	.	16ccn/JJ)	.
=119	=119	=119	=119	=119	=119
4.r	.	4.r	(16b/LL	4.r	4.r
.	.	.	16cc/	.	.
.	.	.	16b/	.	.
.	.	.	16a/	.	.
.	.	.	16g/	.	.
.	.	.	16e/JJ)	.	.
!!LO:PB:g=original
=120	=120	=120	=120	=120	=120
*	*	*	*^	*	*
4.r	.	4.r	4.r	16d\LL	4.r	4.r
.	.	.	.	16e\	.	.
.	.	.	.	16d\	.	.
.	.	.	.	16c#X\	.	.
.	.	.	.	16d\	.	.
!	!	!	!	!LO:TX:t=P:problem=# poprawiony na n	!	!
.	.	.	.	16c\JJ	.	.
=121	=121	=121	=121	=121	=121	=121
4.r	.	4.r	4.r	16B\LL	4.r	4.r
.	.	.	.	16c\	.	.
.	.	.	.	16B\	.	.
.	.	.	.	16c\	.	.
.	.	.	.	16B\	.	.
.	.	.	.	16c\JJ	.	.
=122	=122	=122	=122	=122	=122	=122
4.r	.	4.r	4.r	16B\LL	4.r	4.r
.	.	.	.	16c\	.	.
.	.	.	.	16B\	.	.
.	.	.	.	16c\	.	.
.	.	.	.	16B\	.	.
.	.	.	.	16c\JJ	.	.
=123	=123	=123	=123	=123	=123	=123
*	*	*^	*	*	*^	*
*	*	*	*	*	*rep	*	*	*
!	!	!	!	!	!	!	!	!LO:MO:mod=!null:null
!	!	!	!	!	!	!	!	!LO:N:vis=4
4.r	.	4.F#/	4.D#X\	(>4.a/	16B\LL	[4b/	[4.b\	[4.bb\
.	.	.	.	.	16c\	.	.	.
.	.	.	.	.	16B\	.	.	.
.	.	.	.	.	16c\	.	.	.
.	.	.	.	.	16B\	8b/]	.	.
.	.	.	.	.	16c\JJ	.	.	.
*	*	*	*	*	*Xrep	*	*	*
=124	=124	=124	=124	=124	=124	=124	=124	=124
*	*	*	*	*	*rep	*	*	*
!	!	!	!	!	!	!	!	!LO:MO:mod=!null:null
!	!	!	!	!	!	!	!	!LO:N:vis=4
4.r	.	4.G/	4.E\	4.g/)	16B\LL	(8b/L	4.b\_	4.bb\_
.	.	.	.	.	16c\	.	.	.
.	.	.	.	.	16B\	8ee/	.	.
.	.	.	.	.	16c\	.	.	.
.	.	.	.	.	16B\	8gg/J)	.	.
.	.	.	.	.	16c\JJ	.	.	.
*	*	*	*	*	*Xrep	*	*	*
*	*	*	*	*v	*v	*	*	*
=125	=125	=125	=125	=125	=125	=125	=125
!	!	!	!	!	!	!	!LO:MO:mod=!null:null
!	!	!	!	!	!	!	!LO:N:vis=4
4.r	.	4.F#/	4.BB\	(>4.a/	(8ff#/L	4.b\_	4.bb\_
.	.	.	.	.	8gg/	.	.
.	.	.	.	.	8dd#X/J	.	.
=126	=126	=126	=126	=126	=126	=126	=126
!	!	!	!	!LO:MO:mod=!null:null	!	!	!
!	!	!	!	!LO:N:vis=4	!	!	!
4.r	.	4.E/	4.E\	4.g/)	8ee/L	4.b\]	4.bb\]
.	.	.	.	.	8ff#/	.	.
.	.	.	.	.	8gg/J)	.	.
!!LO:LB:g=original
=127	=127	=127	=127	=127	=127	=127	=127
*	*	*	*	*^	*	*	*
*	*	*	*	*	*rep	*	*	*
4.r	.	[4.D#X/	4.D#\	[>4.f#/	16B\LL	4bb/	[4.b\	[4.bb\
.	.	.	.	.	16c\	.	.	.
.	.	.	.	.	16B\	.	.	.
.	.	.	.	.	16c\	.	.	.
.	.	.	.	.	16B\	8aa/	.	.
.	.	.	.	.	16c\JJ	.	.	.
*	*	*	*	*	*Xrep	*	*	*
=128	=128	=128	=128	=128	=128	=128	=128	=128
*	*	*	*	*	*rep	*	*	*
!	!	!	!	!LO:MO:mod=!null:null	!	!	!	!
!	!	!	!	!LO:N:vis=4	!	!	!	!
4.r	.	4.D#X/]	4.BB\	4.f#/]	16B\LL	8aa/L	4.b\]	4.bb\_
.	.	.	.	.	16c\	.	.	.
.	.	.	.	.	16B\	8gg/	.	.
.	.	.	.	.	16c\	.	.	.
.	.	.	.	.	16B\	8ff#/J	.	.
.	.	.	.	.	16c\JJ	.	.	.
*	*	*	*	*	*Xrep	*	*	*
=129	=129	=129	=129	=129	=129	=129	=129	=129
*	*	*	*	*	*rep	*	*	*
!	!	!	!LO:MO:mod=!null:null	!LO:MO:mod=!null:null	!	!	!	!
!	!	!	!LO:N:vis=4	!LO:N:vis=4	!	!	!	!
4.r	.	4.E/	4.EE\	4.g/	16B\LL	8ee/L	4.b\	4.bb\_
.	.	.	.	.	16c\	.	.	.
.	.	.	.	.	16B\	8dd#X/	.	.
.	.	.	.	.	16c\	.	.	.
.	.	.	.	.	16B\	8ee/J	.	.
.	.	.	.	.	16c\JJ	.	.	.
*	*	*	*	*	*Xrep	*	*	*
*	*	*v	*v	*	*	*	*	*
*	*	*	*v	*v	*	*	*
=130	=130	=130	=130	=130	=130	=130
*	*	*	*	*	*	*^
4.r	.	8E\L	4.g/	4.ee/	4.b\	16bb/LL]	4bb\
.	.	.	.	.	.	16ff#/	.
.	.	8D#X\	.	.	.	16gg/	.
.	.	.	.	.	.	16bb/	.
.	.	8E\J	.	.	.	16eee/	8ryy
.	.	.	.	.	.	16ddd/JJ	.
*	*	*	*	*v	*v	*	*
=131	=131	=131	=131	=131	=131	=131
*	*	*^	*	*	*	*
4E/	.	8rB	4.E\	(>4g/	16ee/LL	4.eee/	8r
.	.	.	.	.	16ffn/	.	.
.	.	8rB	.	.	16ee/	.	8r
.	.	.	.	.	16ff/	.	.
8E/	.	8rB	.	8g#X/	16ee/	.	8ddd\
.	.	.	.	.	16ff/JJ	.	.
=132	=132	=132	=132	=132	=132	=132	=132
*	*	*	*	*	*rep	*	*
4.r	.	(8E/L	4.AA\	4.a/)	16ee/LL	4.eee/	4.ccc\
.	.	.	.	.	16ffn/	.	.
.	.	8A/	.	.	16ee/	.	.
.	.	.	.	.	16ff/	.	.
.	.	8c/J)	.	.	16ee/	.	.
.	.	.	.	.	16ff/JJ	.	.
*	*	*	*	*	*Xrep	*	*
=133	=133	=133	=133	=133	=133	=133	=133
*	*	*	*	*	*rep	*	*
(>8BnX/L	.	4r	4.E\	(>4g#X/	16ee/LL	4.eee/	4.ddd\
.	.	.	.	.	16ffn/	.	.
8c/	.	.	.	.	16ee/	.	.
.	.	.	.	.	16ff/	.	.
8G#X/J)	.	8rB	.	8b/	16ee/	.	.
.	.	.	.	.	16ff/JJ	.	.
*	*	*	*	*	*Xrep	*	*
!!LO:LB:g=original
=134	=134	=134	=134	=134	=134	=134	=134
!	!	!	!	!LO:TX:t=P:problem=brak zakończenia łuku	!	!	!
4.r	.	(8A/L	4.AA\	4.a/)	16ee/LL	4.eee/	4.ccc\
.	.	.	.	.	16ffn/	.	.
.	.	8B/	.	.	16ee/	.	.
.	.	.	.	.	16ff/	.	.
.	.	8c/J)	.	.	16ee/	.	.
.	.	.	.	.	16ff/JJ	.	.
=135	=135	=135	=135	=135	=135	=135	=135
*	*	*	*	*	*rep	*	*
(4e/	.	4.r	4.EE\	4.g#X/	16ee/LL	4.eee/	4.bb\
.	.	.	.	.	16ffn/	.	.
.	.	.	.	.	16ee/	.	.
.	.	.	.	.	16ff/	.	.
8d/)	.	.	.	.	16ee/	.	.
.	.	.	.	.	16ff/JJ	.	.
*	*	*	*	*	*Xrep	*	*
=136	=136	=136	=136	=136	=136	=136	=136
*	*	*	*	*	*rep	*	*
4.r	.	(8d/L	4.E\	4.b/	16ee/LL	4.eee/	4.gg#X\
.	.	.	.	.	16ffn/	.	.
.	.	8c/	.	.	16ee/	.	.
.	.	.	.	.	16ff/	.	.
.	.	8B/J)	.	.	16ee/	.	.
.	.	.	.	.	16ff/JJ	.	.
*	*	*	*	*	*Xrep	*	*
=137	=137	=137	=137	=137	=137	=137	=137
!	!	!	!	!	!LO:TX:t=P:problem=znak repetycji poprawiony na nuty	!	!
(8A/L	.	4r	4.AA\	4.cc/	(16ee\LL	4.eee/	4.aa\
.	.	.	.	.	16ffn\	.	.
8G#X/	.	.	.	.	16ee\	.	.
.	.	.	.	.	16ff\J	.	.
8A/J)	.	8r	.	.	8ee\J)	.	.
*	*	*v	*v	*	*	*	*
=138	=138	=138	=138	=138	=138	=138
4.A^/	.	4.r	4.r	(16aa\LL	16eee/LL	(16ccc\LL
!	!	!	!	!	!LO:SIC:o=16fff#/:v	!
.	.	.	.	16gg#X\	16fffn/	16ddd\
.	.	.	.	16aa\	16eee/	16ccc\
!	!	!	!	!	!LO:SIC:o=16fff#/JJ:v	!
.	.	.	.	16gg#\J	16fffn/JJ	16ddd\JJ
.	.	.	.	8aa\J)	8eee/	8ccc\)
*	*	*	*	*	*v	*v
=139	=139	=139	=139	=139	=139
(8A/L	.	4.r	4.r	4.r	4.r
8G#X/	.	.	.	.	.
8A/J)	.	.	.	.	.
=140	=140	=140	=140	=140	=140
*	*	*	*	*^	*
4.A/	.	4.r	(16a/LL	16ee/LL	16cc\LL	4.r
.	.	.	16g#X/	16ffn/	16dd\	.
.	.	.	16a/	16ee/	16cc\	.
.	.	.	16g#/J	16ff/J	16dd\J	.
!	!	!	!LO:MO:mod=!null:null	!	!	!
!	!	!	!LO:N:vis=16	!	!	!
.	.	.	8a/J)	8ee/J	8cc\J	.
*	*	*	*	*v	*v	*
=	=	=	=	=	=
*-	*-	*-	*-	*-	*-
!!!system-decoration: s1,s2,s3,s4,s5
!!!system-decoration-mod: [(s1,s2,s3,s4,s5)]
!!!RDF**kern: > = above
!!!RDF**kern: < = below
!!!filter-modern: sic -sq | shed -e "s/LO:DY:(a|b|rj)/LO:dy:$1/L" | shed -e "s/TX(.*):t=P:/tx$1:t=P:/LG" | modori -m | autostem -r | shed -e "s/yy//" | shed -k -e "s/\(y([^y])/($1/" | shed -e "s/-//B" | shed -e "s/^(X?)rep$/$1REP/I" | shed -k -e "s/[<>]//g" | shed -k -e "s/:TUP:/:tup:/L"
!!!ENC: Katarzyna Serwa
!!!END: 2021-12-29
!!!EED: Andrzej Kubiczek
!!!EEV: 2021-11-20
!!!EED-modern: Antoni Szymański
!!!END-modern: 2022-09-06
